X: 20442
M: C
L: 1/8
K: D
(d>B) |\
(A<F)(E>D) D3B, | A,>B, (D>E) D3F |\
(G>F)(G>A) (B>A) (Bc/d/) | F2E2 E2(d>B) |\
(A<F)(E>D) D3B, |
f2(ed) (A>B)(d>e)| f2(e>d) d2 |] (f>g) |\
a>fa>b (a<f)(ed) | B2(e>f) e2(de) |
(f>e)(d>B) (d<B) (A<F) | B,2(E>F) E2(AG) |\
{G}F2(ED) A2(GF) | (B>A) (Bd) A3d |\


